!!!id: BC037
!!!page: 48-49
!!!COM: Nadeau, Hector (abbé, p.s.s.)
!!!LYR: Nadeau, Hector (abbé, p.s.s.)
!!!PTL@@FR: Les 100 plus belles chansons
!!!OTL@@FR: Le vieux sapin
!!!PUB: La Bonne Chanson, inc.
!!!YEM: On ne peut reproduire, enregistrer ou diffuser en tout ou en partie le présent ouvrage, sous quelque procédé que ce soit, électronique, mécanique, photographique, sonore, magnétique ou autre, sans avoir obtenu au préalable l'autorisation écrite de l'éditrice.
!!!PDT: 2011
!!!SMA: 2012 Bibliothèque nationale du Québec; Biblothèque nationale du Canada
!!!AGN-Laforte: Chanson strophique (avec refrain), 3:8(9), R:8(6)
!!!AGN-type: Chanson de viellesse
!!!AGN-rime: mixtes; v: croisées/suivies (abab/ccdd); R: suivies (aabbccdd)
**kern	**text	**text	**text
*clefG2	*	*	*
*k[]	*	*	*
*C:	*	*	*
!!LO:TX:a:t=Andante
*M6/8	*	*	*
*	*v:1	*v:2	*v:3
*	*pline:1	*pline:9	*pline:17
8g	Que	Vieux	Vieux
8g	de	sa-	sa-
=1	=1	=1	=1
8g	fois	-pin,	-pin,
8e	au	à	dans
8e	dé-	l'al-	ma
8e	-clin	-lu-	viel-
8d	de	-re	-le
8c	la	si	mé-
=2	=2	=2	=2
(4d	vi-	fiè-	-moi-
16d)	-e,	-re,	-re,
*	*rp:i	*rp:ɛ:	*rp:q
*	*rf:avi,ə	*rf:jɛ:ʁ,ə	*rf:waʁ,ə
*	*rs:a1	*rs:e1	*rs:f2
16r	.	.	.
*	*pline:2	*pline:10	*pline:18
4d	Quand	Tu	Tu
8e	je	re-	re-
!!LO:PB:g=original
=3	=3	=3	=3
8f	song[e]	-dis	-vis
8d	aux	les	comm[e]
8d	beaux	ver-	un
8d	jours	-tus	arbr[e]
8e	du	d'au-	en-
8f	pas-	-tre-	-chan-
=4	=4	=4	=4
4.e	-sé,	-fois;	-té.
*	*rp:e	*rp:a	*rp:e
*	*rf:se	*rf:wa	*rf:te
*	*rs:b1	*rs:f1	*rs:b4
8r	.	.	.
*	*pline:3	*pline:11	*pline:19
8g	Je	Tu	Je
8g	re-	con-	te
!!LO:PB:g=original
=5	=5	=5	=5
8cc	-viens	-nus	vois
8cc	l'â-	le	plein
8cc	-me	fer-	d'or-
8cc	tou-	-mier,	-gueil
8cc	-te	la	et
8dd	ra-	fer-	de
=6	=6	=6	=6
(4cc	-vi-	-miè-	gloi-
16b)	-e	-re.	-re,
*	*rp:i	*rp:ɛ:	*rp:a
*	*rf:avi,ə	*rf:jɛ:ʁ,ə	*rf:waʁ,ə
*	*rs:a1	*rs:e1	*rs:f2
16r	.	.	.
*	*pline:4	*pline:12	*pline:20
8d	Au	Tu	Près
8d	nid	fus	du
8d	char-	té-	vieux
!!LO:PB:g=original
=7	=7	=7	=7
4b	-mant	-moin	gît[e]
!!v:3, "encor" in original
8d	qui	de	en-
8d	m'a	bien	-cor[e]
8d	tant	doux	ha-
8a	ber-	é-	-bi-
=8	=8	=8	=8
4g	-cé.	-mois,	-té.
*	*rp:e	*rp:a	*rs:e
*	*rf:se	*rf:wa	*rf:te
*	*rs:b1	*rs:f1	*rs:b4
8r	.	.	.
4r	.	.	.
*	*pline:5	*pline:13	*pline:21
16e	Je	Quand,	Bien
16e	re-	ja-	des
=9	=9	=9	=9
4g	-vois	-dis,	soirs,
16f	la	sous	sous
16e	mai-	ta	la
4g	-son	fraî-	ver-
16f	pa-	-che	-te
16e	-ter-	feuil-	char-
!!LO:PB:g=original
=10	=10	=10	=10
(4.g	-nel-	-lé-	-mil-
16g)	-le,	-e,	-le,
*	*rp:ɛ	*rp:e	*rp:i
*	*rf:ɛl,ə	*rf:je,ə	*rf:ij,ə
*	*rs:c	*rs:b2	*rs:a2
16r	.	.	.
8r	.	.	.
*	*pline:6	*pline:14	*pline:22
16e	Le	Près	Prè
16e	jar-	de	de
=11	=11	=11	=11
4g	din,	toi,	toi,
16d	le	la	ré-
16d	vieux	nom-	-u-
4d	puits,	-breu-	-nis
16e	la	-se	en
16f	mar-	ni-	fa-
!!LO:PB:g=original
=12	=12	=12	=12
(4.g	-gel-	-ché-	-mil-
16g)	-le,	-e	-le,
*	*rp:ɛ	*rp:e	*rp:i
*	*rf:ɛl,ə	*rf:ʃe,ə	*rf:ij,ə
*	*rs:c	*rs:b3	*rs:a2
16r	.	.	.
*	*pline:7	*pline:15	*pline:23
8g	Je	Gran-	Nous
8g	re-	-dis-	al-
=13	=13	=13	=13
8cc	-vois	-sait	-lions
8b	sur	comm[e]	nous
8a	le	en	re-
8g	bord	un	-po-
8f	du	coin	-ser
8e	che-	des	un
!!LO:PB:g=original
=14	=14	=14	=14
4a	-min	cieux,	brin
*	*rp:ẽ	*rp:ø	*rp:ẽ
*	*rf:mẽ	*rf:jø	*rf:ʁẽ
*	*rs:d1	*rs:g1	*rs:d3
8r	.	.	.
*	*pline:8	*pline:16	*pline:24
8d	L'ar-	Vi-	Et
8e	-bre	-vait	fô-
8f	gé-	en	-la-
=15	=15	=15	=15
4g	-ant,	paix	-trer
8g	le	près	sous
8g	cher	de	le
8g	vieux	l'arbr[e]	vieux
8g	sa-	om-	sa-
=116	=116	=116	=116
4g	-pin.	-breux.	-pin.
*	*rp:ẽ	*rp:ø	*rp:ẽ
*	*rf:pẽ	*rf:ʁø	*rf:pẽ
*	*rs:d2	*rs:g2	*rs:d2
8r	.	.	.
4r	.	.	.
!!LO:PB:g=original
=||	=||	=||	=||
*>Refrain	*>Refrain	*>Refrain	*>Refrain
!!LO:TX:a:B:t=Andante moderato
!!LO:TX:a:B:t=REFRAIN
*	*pline:R1	*	*
8g	Mon	.	.
=17	=17	=17	=17
4e	âm[e],	.	.
8g	a-	.	.
4g	-lors	.	.
8f#	ray-	.	.
=18	=18	=18	=18
(4.fn	-on-	.	.
4f)	-ne	.	.
*	*rp:ɔ	*	*
*	*rf:ɔn,ə	*	*
*	*rs:Rh	*	*
8r	.	.	.
*	*pline:R2	*	*
8a	Et	.	.
=19	=19	=19	=19
4a	tout	.	.
8a	en	.	.
4b	moi	.	.
8b	chan-	.	.
!!LO:PB:g=original
=20	=20	=20	=20
(4.g	-ton-	.	.
4g)	-ne;	.	.
*	*rp:ɔ	*	*
*	*rf:ɔn,ə	*	*
*	*rs:Rh	*	*
8r	.	.	.
=21	=21	=21	=21
*	*pline:R3	*	*
4cc	J'en-	.	.
8cc	-tends	.	.
8cc	le	.	.
8.cc	vieux	.	.
16a	sa-	.	.
=22	=22	=22	=22
2.b	-pin	.	.
*	*rp:ẽ	*	*
*	*rf:pẽ	*	*
*	*rs:Rd2	*	*
!!LO:PB:g=original
=23	=23	=23	=23
*	*pline:R4	*	*
4b	Qui	.	.
8b	re-	.	.
8b	-dit	.	.
8.a	son	.	.
16e	re-	.	.
=24	=24	=24	=24
4.g	-frain.	.	.
*	*rp:ẽ	*	*
*	*rf:ʁẽ	*	*
*	*rs:Rd3	*	*
4r	.	.	.
*	*pline:R5	*	*
8g	À	.	.
=25	=25	=25	=25
4e	la	.	.
8g	bri-	.	.
8g	-se	.	.
8f#	lé-	.	.
!!LO:PB:g=original
=26	=26	=26	=26
(4.fn	-gè-	.	.
8f)	-re,	.	.
*	*rp:ɛː	*	*
*	*rf:ʒɛ:ʁ,ə	*	*
*	*rs:Re2	*	*
8r	.	.	.
*	*pline:R6	*	*
8a	Il	.	.
=27	=27	=27	=27
4a	mè-	.	.
8a	-le	.	.
4b	sa	.	.
8b	voix	.	.
=28	=28	=28	=28
(4.g	fiè-	.	.
4g)	-re,	.	.
*	*rp:ɛː	*	*
*	*rf:jɛːʁ,ə	*	*
*	*rs:Re1	*	*
8r	.	.	.
!!LO:PB:g=original
=29	=29	=29	=29
*	*pline:R7	*	*
4cc	Et	.	.
8cc	son	.	.
8cc	hym-	.	.
8.dd	-ne	.	.
16ee	joy-	.	.
=30	=30	=30	=30
2.a;	-eux,	.	.
*	*rp:ø	*	*
*	*rf:jø	*	*
*	*rs:Rg1	*	*
=31	=31	=31	=31
*	*pline:R8	*	*
4b	C'est	.	.
8b	l'é-	.	.
8g	-cho	.	.
8dd;	des	.	.
8ee	aï-	.	.
=31	=31	=31	=31
(8eeq	.	.	.
4.cc)	-eux	.	.
*	*rp:ø	*	*
*	*rp:jø	*	*
*	*rs:Rg1	*	*
8r	.	.	.
==	==	==	==
*-	*-	*-	*-
!!!EED: Ève Poudrier
!!!EEV: 2025/06/11
